!!!!SEGMENT: pl-wtm--r-1549--004_stefani-jozef--msza-no-8-sanctus.krn
!!!cenid: 18xx:1805
!!!COM: Stefani, Józef
!!!COM-rismID: pe30024097
!!!CDT: 1800/04/16-1876/03/19
!!!CNT: Polish
!!!OPR: Msza No 8
!!!OTL: Sanctus
!!!OMV: 004
!!!PDT:
!!!AGN: Sacred; Mass
!!!SMS-siglum: PL-Wtm
!!!SMS-shelfmark: R 1549
!!!SMS-shelfwork: 001-004 M
!!!SMS-variant:
!!!SMS-altvar:
!!!NIFC-rismSourceID: 1001115167
!!!NIFC-islandoraID: pl-wtm:26643
!!!URL-pdf-islandora: https://repozytorium.nifc.pl/islandora/object/pl-wtm%3A26643/datastream/PDF/view
!!!URL-scan: https://polish.musicsources.pl/pl/lokalizacje/galeria/rekopisy/6350 @EN{Scan on Polish Music Sources Website} @PL{Skany w portalu Dziedzictwo Muzyki Polskiej w otwartym dostępie}
!!!ONB-nifc: UWAGA: części Mszy: 1. Kyrie, 2. Gloria, 3. Credo, 4. Sanctus, 5. Benedictus Terzetto, 6. Agnus Dei. W źródle Benedictus wpisany po Agnus Dei
!!!AIN: 1 cello 1 viola 2 violn 3 vox
!!!key:
**kern	**dynam	**kern	**dynam	**kern	**dynam	**kern	**dynam	**kern	**text	**text	**dynam	**kern	**text	**kern	**text	**dynam
*part7	*part7	*part6	*part6	*part5	*part5	*part4	*part4	*part3	*part3	*part3	*part3	*part2	*part2	*part1	*part1	*part1
*staff7	*	*staff6	*	*staff5	*	*staff4	*	*staff3	*staff3	*staff3	*	*staff2	*staff2	*staff1	*staff1	*
*Icello	*	*Iviola	*	*Ivioln	*	*Ivioln	*	*Ivox	*	*	*	*Ivox	*	*Ivox	*	*
*I"Cello	*	*I"Viola	*	*I"Violino II	*	*I"Violino I	*	*I"Voce	*	*	*	*I"Voce	*	*I"Voce	*	*
*I'Vc.	*	*I'Va	*	*I'Vn II	*	*I'Vn I	*	*I'V.	*	*	*	*I'V.	*	*I'C.	*	*
*clefF4	*	*clefC3	*	*clefG2	*	*clefG2	*	*clefG2	*	*	*	*clefG2	*	*clefG2	*	*
*k[]	*	*k[]	*	*k[]	*	*k[]	*	*k[]	*	*	*	*k[]	*	*k[]	*	*
*C:	*	*C:	*	*C:	*	*C:	*	*C:	*	*	*	*C:	*	*C:	*	*
*M4/4	*	*M4/4	*	*M4/4	*	*M4/4	*	*M4/4	*	*	*	*M4/4	*	*M4/4	*	*
*met(c)	*	*met(c)	*	*met(c)	*	*met(c)	*	*met(c)	*	*	*	*met(c)	*	*met(c)	*	*
*>[A,B,B1,B,B1,B,B1,B,B2,C]	*	*	*	*	*	*	*	*	*	*	*	*	*	*	*	*
*>A	*	*	*	*	*	*	*	*	*	*	*	*	*	*	*	*
!LO:TX:a:t=P:problem=all\right global	!LO:DY:rj:a	!LO:TX:a:t=P:problem=all\right global	!	!LO:TX:a:t=P:problem=all\right global	!	!LO:TX:a:t=P:problem=all\right global	!	!	!	!	!	!	!	!LO:TX:a:t=Adagio	!	!
16GG/	f	16g\ 16G\	.	16g/	.	16gg\	f	16r	.	.	.	16r	.	16r	.	.
=1	=1	=1	=1	=1	=1	=1	=1	=1	=1	=1	=1	=1	=1	=1	=1	=1
!	!	!	!	!LO:TX:a:t=8va	!	!	!	!	!	!	!	!	!	!	!	!
4.G\	.	4.g\ 4.G\	.	4.g/yy	.	4.gg\	.	1r	.	.	.	1r	.	1r	.	.
16r	.	16r	.	16ryy	.	16r	.	.	.	.	.	.	.	.	.	.
16GG/	.	16g\ 16G\	.	16g/yy	.	16gg\	.	.	.	.	.	.	.	.	.	.
4.G\	.	4.g\ 4.G\	.	4.g/yy	.	4.gg\	.	.	.	.	.	.	.	.	.	.
16r	.	16r	.	16ryy	.	16r	.	.	.	.	.	.	.	.	.	.
16GG/	.	16g\ 16G\	.	16g/yy	.	16gg\	.	.	.	.	.	.	.	.	.	.
=2	=2	=2	=2	=2	=2	=2	=2	=2	=2	=2	=2	=2	=2	=2	=2	=2
*2\right	*	*2\right	*	*	*	*2\right	*	*	*	*	*	*	*	*	*	*
!	!	!	!	!	!	!LO:TX:b:t=ten	!	!	!	!	!	!	!	!	!	!
2.G\	.	2.g\ 2.G\	.	2.g/yy	.	2.gg\	.	2r	.	.	.	2r	.	2r	.	.
.	.	.	.	.	.	.	.	4r	.	.	.	4r	.	4r	.	.
=|:	=|:	=|:	=|:	=|:	=|:	=|:	=|:	=|:	=|:	=|:	=|:	=|:	=|:	=|:	=|:	=|:
*>B	*	*	*	*	*	*	*	*	*	*	*	*	*	*	*	*
!	!	!	!	!	!	!	!	!LO:TX:a:t=P:problem=all\right global	!	!	!	!LO:TX:a:t=P:problem=all\right global	!	!LO:TX:a:t=P:problem=all\right global	!	!LO:DY:rj
4GG/	.	4G/	.	4g/	.	4g/	.	4g/	3.) Po-	4.) Pan	.	4g/	2.) Za-	4g/	1.) U-	f
=3	=3	=3	=3	=3	=3	=3	=3	=3	=3	=3	=3	=3	=3	=3	=3	=3
!	!	!	!	!LO:TX:a:t=unis	!	!	!	!	!	!	!	!	!	!	!	!
4.C/	.	4.c\	.	4.cc\yy	.	4.cc\	.	4.c/	-wta-	wie-	.	4.cc\	-brzmij-	4.cc\	-pad-	.
8A\	.	8a\	.	8a/yy	.	8a/	.	8a/	-rzaj	-czny	.	8a/	-cie	8a/	-nij	.
4G\	.	4g\	.	4g/yy	.	4g/	.	4g/	ludz-	za-	.	4g/	z na-	4g/	na	.
4E\	.	4e\	.	4e/yy	.	4e/	.	4e/	-ki	-wsze	.	4e/	-mi	4e/	ko-	.
=4	=4	=4	=4	=4	=4	=4	=4	=4	=4	=4	=4	=4	=4	=4	=4	=4
*	*	*tremolo	*	*tremolo	*	*tremolo	*	*	*	*	*	*	*	*	*	*
2G\	.	16g\LL	.	16g/LLyy	.	16g/LL	.	2g/	ro-	wszę-	.	2g/	Nie-	2g/	-la-	.
.	.	16g\	.	16g/yy	.	16g/	.	.	.	.	.	.	.	.	.	.
.	.	16g\	.	16g/yy	.	16g/	.	.	.	.	.	.	.	.	.	.
.	.	16g\	.	16g/yy	.	16g/	.	.	.	.	.	.	.	.	.	.
.	.	16g\	.	16g/yy	.	16g/	.	.	.	.	.	.	.	.	.	.
.	.	16g\	.	16g/yy	.	16g/	.	.	.	.	.	.	.	.	.	.
.	.	16g\	.	16g/yy	.	16g/	.	.	.	.	.	.	.	.	.	.
.	.	16g\JJ	.	16g/JJyy	.	16g/JJ	.	.	.	.	.	.	.	.	.	.
*	*	*Xtremolo	*	*Xtremolo	*	*Xtremolo	*	*	*	*	*	*	*	*	*	*
4GG/	.	4G/	.	4g/yy	.	4g/	.	4g/	-dzie	-dzie	.	4g/	-ba	4g/	-na	.
(8.GG/L	.	(8.G/L	.	(8.g/Lyy	.	(8.g/L	.	4r	.	.	.	4r	.	4r	.	.
32AA/LL	.	32A/LL	.	32a/LLyy	.	32a/LL	.	.	.	.	.	.	.	.	.	.
32BB/JJJ)	.	32B/JJJ)	.	32b/JJJ)yy	.	32b/JJJ)	.	.	.	.	.	.	.	.	.	.
=5	=5	=5	=5	=5	=5	=5	=5	=5	=5	=5	=5	=5	=5	=5	=5	=5
!	!LO:DY:rj	!	!	!	!LO:DY:a	!	!	!	!	!	!	!	!	!	!	!LO:DY:rj
4.C/	p <	4.c\ 4.G\	.	4.ccyy/ 4.e/yy	p	4.cc/ 4.e/ 4.G/	<	4.e/	Bo-	Ku-	.	4.g/	Bóg	4.cc\	Lu-	p
!	!	!	!	!	!LO:HP:a	!	!	!	!	!	!	!	!	!	!	!
.	.	.	.	.	<	.	.	.	.	.	.	.	.	.	.	.
8C/	.	8g\ 8G\	.	8ccyy/ 8e/yy	.	8cc/ 8e/	.	8e/	-giem	-nam	.	8g/	nam	8cc\	-du	<
4C/	.	4g\ 4G\	.	4ccyy/ 4e/yy	.	4cc/ 4e/	.	4e/	prze-	łas-	.	4g/	nie	4cc\	czcią	.
.	[	.	.	.	.	.	.	.	.	.	.	.	.	.	.	.
4GG/	.	4g\ 4G\	.	4b/ 4d/	[[	4dd\ 4g\	.	4g/	-ni-	-ką	.	4b/	po-	4dd\	prze-	[[
!!LO:LB:g=original
=6	=6	=6	=6	=6	=6	=6	=6	=6	=6	=6	=6	=6	=6	=6	=6	=6
*	*	*	*	*	*	*	*	*	*	*	*	*2\right	*	*2\right	*	*
!	!	!	!	!	!	!	!	!	!	!	!	!	!	!	!	!LO:DY:rj
4.C/	.	4.g\ 4.c\	.	4.cc/ 4.e/ 4.G/	.	4.ee\ 4.cc\ 4.g\	.	2c/	-knię-	zdię-	.	2cc\	-ię-	2ee\	-ię-	f >
.	.	.	.	.	.	.	.	.	.	.	.	.	.	.	.	.
16r	.	16r	.	16r	.	16r	.	.	.	.	.	.	.	.	.	.
.	f	.	f	.	f	.	f	.	.	.	.	.	.	.	.	.
16C/	.	16e/ 16G/	.	16gg\ 16cc\	.	16ccc\ 16ee\|	.	.	.	.	.	.	.	.	.	.
4C/	.	4e/ 4G/	.	4gg\ 4cc\	.	4ccc\ 4ee\|	.	4c/	-ty	-ty	.	4cc\	-ty	4ee\	-ty	.
.	.	.	.	.	p	.	p	.	.	.	.	.	.	.	.	p
4r	.	4c/	.	[4cc\	.	(4cc\	.	4cc\	Niech	.	.	4cc\	W po-	4cc\	U-	]
=7	=7	=7	=7	=7	=7	=7	=7	=7	=7	=7	=7	=7	=7	=7	=7	=7
*^	*	*	*	*	*	*	*	*	*	*	*	*	*	*	*	*
!	!	!	!	!	!	!	!	!	!	!	!	!	!	!	!LO:TX:a:t=dolce	!	!
2r	1r	.	4.a\	.	4.cc\]	.	4.ff\)	.	4.a/	wiecz-	.	.	4.cc\	-sta-	4.ff\	-wiel-	.
.	.	.	8a\	.	8cc\	.	8ff\	.	8a/	-nie	.	.	8cc\	-ci	8ff\	-biaj	.
!LO:TX:a:t=Vcelli	!	!	!	!	!	!	!	!	!	!	!	!	!	!	!	!	!
4r	.	.	4g\	.	4cc\	.	4ee\	.	4g/	wiel-	.	.	4cc\	przy-	4ee\	twe-	.
(4f\	.	.	4a\	.	4cc\	.	4dd\	.	4f/	-bion	.	.	4cc\	-szedł	4dd\	-go	.
=8	=8	=8	=8	=8	=8	=8	=8	=8	=8	=8	=8	=8	=8	=8	=8	=8	=8
!	!	!	!	!	!LO:TX:a:t=P:mixedbeam:problem	!	!	!	!	!	!	!	!	!	!	!	!
8e\)	2r	.	8g\	.	8cc\L	.	8gg\L 8cc\ 8e\ 8G\|	.	2e/	bę-	.	.	2cc\	chle-	2gg\	Pa-	.
8r	.	.	8r	.	(16f#X/L	.	(16ff#X\L	.	.	.	.	.	.	.	.	.	.
.	.	.	.	.	16g/JJ	.	16gg\JJ	.	.	.	.	.	.	.	.	.	.
4r	.	.	4r	.	16cc/LL	.	16ccc\LL	.	.	.	.	.	.	.	.	.	.
.	.	.	.	.	16g/	.	16gg\	.	.	.	.	.	.	.	.	.	.
.	.	.	.	.	16ee/	.	16eee\	.	.	.	.	.	.	.	.	.	.
.	.	.	.	.	16dd/JJ	.	16ddd\JJ	.	.	.	.	.	.	.	.	.	.
4E^</	4E\	.	4g\ 4c^<\	.	4cc/)	.	4ccc^<\)	.	4e/	-dzie	.	.	4cc\	-ba	4gg\	-na	.
4r	4ryy	.	4r	.	4r	.	4r	.	4r	.	.	.	4r	.	4r	.	.
=9	=9	=9	=9	=9	=9	=9	=9	=9	=9	=9	=9	=9	=9	=9	=9	=9	=9
*	*	*	*^	*	*^	*	*^	*	*	*	*	*	*	*	*	*	*
!	!	!LO:DY:rj	!	!	!	!	!	!	!	!	!LO:DY:rj	!	!	!	!	!	!	!	!	!LO:DY:rj
2.D/	1r	f	2d/	2.r	.	2.a/	2r	.	(2gg/	2r	f	2d/	.	.	f	2a/	.	2gg\	Świę-	f
.	.	.	4r	.	.	.	8.r	.	4ff/)	8.r	.	4d/	.	.	.	4a/	.	4ff\	-ty	.
!	!	!	!	!	!	!	!	!	!	!	!LO:DY:b	!	!	!	!	!	!	!	!	!
.	.	.	.	.	.	.	.	.	.	.	p	.	.	.	.	.	.	.	.	.
!	!	!	!	!	!LO:DY:b	!	!	!	!	!	!	!	!	!	!	!	!	!	!	!
.	.	.	.	.	p	.	(>16dd\	.	.	(>16ff\	.	.	.	.	.	.	.	.	.	.
4r	.	.	4ryy	4a\ 4d\	.	4ryy	4ff\)	.	4ryy	4aa\)	.	4r	.	.	.	4r	.	4r	.	.
=10	=10	=10	=10	=10	=10	=10	=10	=10	=10	=10	=10	=10	=10	=10	=10	=10	=10	=10	=10	=10
2.G/	1r	.	2g/	2r	.	[2b/	2r	.	[2dd/	2r	.	2g/	.	.	.	2b\	.	2dd\	Świę-	.
.	.	.	4g/	4r	.	4b/]	8.r	.	4dd/]	8.r	.	4g/	.	.	.	4b\	.	4dd\	-ty	.
.	.	.	.	.	.	.	(>16b\	.	.	(>16dd\	.	.	.	.	.	.	.	.	.	.
4r	.	.	4g\	4ryy	.	4ryy	4dd\)	.	4ryy	4ff\)	.	4r	.	.	.	4r	.	4r	.	.
!!LO:PB:g=original
=11	=11	=11	=11	=11	=11	=11	=11	=11	=11	=11	=11	=11	=11	=11	=11	=11	=11	=11	=11	=11
!LO:TX:t=1. 2. 3.	!	!	!	!	!	!	!	!	!	!	!	!	!	!	!	!	!	!	!	!
*>B1	*	*	*	*	*	*	*	*	*	*	*	*	*	*	*	*	*	*	*	*
(2C/	1r	.	(2g/	1r	.	(1cc/	1r	.	((2ee/	1r	.	2c/	.	.	.	(2g/	.	(2ee\	Świę-	.
2F#X/	.	.	2a/	.	.	.	.	.	2ee-X/)	.	.	2f#X/	.	.	.	2a/)	.	2ee-X\)	.	.
=12	=12	=12	=12	=12	=12	=12	=12	=12	=12	=12	=12	=12	=12	=12	=12	=12	=12	=12	=12	=12
2.G/)	4r	.	2.g/)	4r	.	2.b/)	4r	.	2.dd/)	4r	.	2.g/	.	.	.	2.b/	.	2.dd\	-ty.	.
.	(8.G\L	.	.	8.G/L	.	.	8.g\L	.	.	8.g\L	.	.	.	.	.	.	.	.	.	.
.	16G\Jk	.	.	16G/Jk	.	.	16g\Jk	.	.	16g\Jk	.	.	.	.	.	.	.	.	.	.
.	4G\)	.	.	4G/	.	.	4g\	.	.	4g\	.	.	.	.	.	.	.	.	.	.
*v	*v	*	*	*	*	*v	*v	*	*v	*v	*	*	*	*	*	*	*	*	*	*
*	*	*v	*v	*	*	*	*	*	*	*	*	*	*	*	*	*	*
=13:|!	=13:|!	=13:|!	=13:|!	=13:|!	=13:|!	=13:|!	=13:|!	=13:|!	=13:|!	=13:|!	=13:|!	=13:|!	=13:|!	=13:|!	=13:|!	=13:|!
!LO:TX:t=4.	!	!	!	!	!	!	!	!	!	!	!	!	!	!	!	!
*>B2	*	*	*	*	*	*	*	*	*	*	*	*	*	*	*	*
*	*	*tremolo	*	*tremolo	*	*tremolo	*	*	*	*	*	*	*	*	*	*
!	!LO:DY:rj	!	!LO:DY:rj	!	!	!	!	!	!	!	!LO:DY:rj	!	!	!	!	!LO:DY:rj
4C/|	ff	16e/LL 16G/	ff|	16g/LL 16c/	.	16ee\LL 16cc\|	ff	1c/	.	.	ff	1cc/ 1g/	.	1ee\	Świę-	ff
.	.	16e/ 16G/	.	16g/ 16c/	.	16ee\ 16cc\	.	.	.	.	.	.	.	.	.	.
.	.	16e/ 16G/	.	16g/ 16c/	.	16ee\ 16cc\	.	.	.	.	.	.	.	.	.	.
.	.	16e/ 16G/	.	16g/ 16c/	.	16ee\ 16cc\	.	.	.	.	.	.	.	.	.	.
4c\	.	16e/ 16G/	.	16g/ 16c/	.	16ee\ 16cc\	.	.	.	.	.	.	.	.	.	.
.	.	16e/ 16G/	.	16g/ 16c/	.	16ee\ 16cc\	.	.	.	.	.	.	.	.	.	.
.	.	16e/ 16G/	.	16g/ 16c/	.	16ee\ 16cc\	.	.	.	.	.	.	.	.	.	.
.	.	16e/ 16G/	.	16g/ 16c/	.	16ee\ 16cc\	.	.	.	.	.	.	.	.	.	.
4G\	.	16e/ 16G/	.	16g/ 16c/	.	16ee\ 16cc\	.	.	.	.	.	.	.	.	.	.
.	.	16e/ 16G/	.	16g/ 16c/	.	16ee\ 16cc\	.	.	.	.	.	.	.	.	.	.
.	.	16e/ 16G/	.	16g/ 16c/	.	16ee\ 16cc\	.	.	.	.	.	.	.	.	.	.
.	.	16e/ 16G/	.	16g/ 16c/	.	16ee\ 16cc\	.	.	.	.	.	.	.	.	.	.
4E\	.	16e/ 16G/	.	16g/ 16c/	.	16ee\ 16cc\	.	.	.	.	.	.	.	.	.	.
.	.	16e/ 16G/	.	16g/ 16c/	.	16ee\ 16cc\	.	.	.	.	.	.	.	.	.	.
.	.	16e/ 16G/	.	16g/ 16c/	.	16ee\ 16cc\	.	.	.	.	.	.	.	.	.	.
.	.	16e/JJ 16G/	.	16g/JJ 16c/	.	16ee\JJ 16cc\	.	.	.	.	.	.	.	.	.	.
*	*	*Xtremolo	*	*Xtremolo	*	*Xtremolo	*	*	*	*	*	*	*	*	*	*
=14	=14	=14	=14	=14	=14	=14	=14	=14	=14	=14	=14	=14	=14	=14	=14	=14
*	*	*	*	*	*	*	*	*	*	*	*	*^	*	*	*	*
2.C/	.	2.e/ 2.G/	.	2.g/ 2.c/	.	2.ee\ 2.cc\	.	2.c/	.	.	.	2.cc/	2.g\	.	2.ee\	-ty.	.
!	!	!	!	!	!	!	!LO:DY:b	!	!	!	!	!	!	!	!	!	!
4C/	p	4e\|	p	4cc\	.	4gg\|	p	4r	.	.	.	4r	4ryy	.	4r	.	.
*	*	*	*	*	*	*	*	*	*	*	*	*v	*v	*	*	*	*
=15	=15	=15	=15	=15	=15	=15	=15	=15	=15	=15	=15	=15	=15	=15	=15	=15
*>C	*	*	*	*	*	*	*	*	*	*	*	*	*	*	*	*
1C/	.	(4a\	.	1cc\	.	(4ccc\	.	1ryy	.	.	.	1ryy	.	1ryy	.	.
.	.	4f\	.	.	.	4aa\	.	.	.	.	.	.	.	.	.	.
.	.	4e\	.	.	.	4gg\	.	.	.	.	.	.	.	.	.	.
.	.	4g\)	.	.	.	4ee\	.	.	.	.	.	.	.	.	.	.
=16	=16	=16	=16	=16	=16	=16	=16	=16	=16	=16	=16	=16	=16	=16	=16	=16
(4F\	.	(4f\	.	1cc/ 1a/	.	1dd\)	.	1ryy	.	.	.	1ryy	.	1ryy	.	.
4E\	.	4e\	.	.	.	.	.	.	.	.	.	.	.	.	.	.
4F\	.	4f\	.	.	.	.	.	.	.	.	.	.	.	.	.	.
4F#X\	.	4f#X\	.	.	.	.	.	.	.	.	.	.	.	.	.	.
=17	=17	=17	=17	=17	=17	=17	=17	=17	=17	=17	=17	=17	=17	=17	=17	=17
*	*	*	*	*2\right	*	*	*	*	*	*	*	*	*	*	*	*
4G\	.	4g\	.	(2cc\	.	(2ee\	.	1ryy	.	.	.	1ryy	.	1ryy	.	.
4GG/	.	4G/	.	.	.	.	.	.	.	.	.	.	.	.	.	.
4G\	.	4g\	.	4cc\	.	4dd\	.	.	.	.	.	.	.	.	.	.
4GG/	.	4fn\	.	4b\	.	4gg\	.	.	.	.	.	.	.	.	.	.
=18	=18	=18	=18	=18	=18	=18	=18	=18	=18	=18	=18	=18	=18	=18	=18	=18
4C/)	.	4e\)	.	4cc\)	.	4cc\)	.	1ryy	.	.	.	1ryy	.	1ryy	.	.
4r	.	4r	.	4r	.	4r	.	.	.	.	.	.	.	.	.	.
4C/	.	4e/ 4G/	.	4cc\	.	4cc\	.	.	.	.	.	.	.	.	.	.
4r	.	4r	.	4r	.	4r	.	.	.	.	.	.	.	.	.	.
!!LO:LB:g=original
=19	=19	=19	=19	=19	=19	=19	=19	=19	=19	=19	=19	=19	=19	=19	=19	=19
4C/	.	4e/ 4G/	.	4cc\	.	4cc\	.	1ryy	.	.	.	1ryy	.	1ryy	.	.
4r	.	4r	.	4r	.	4r	.	.	.	.	.	.	.	.	.	.
!	!	!	!	!	!	!	!LO:DY:b	!	!	!	!	!	!	!	!	!
(2BB-X^/	sf	(2f^<\	.	(2a-X^/	sf	(2dd^<\	sf	.	.	.	.	.	.	.	.	.
=20	=20	=20	=20	=20	=20	=20	=20	=20	=20	=20	=20	=20	=20	=20	=20	=20
4C/)	.	4e-X\)	.	4g/)	.	4ee-X\)	.	1ryy	.	.	.	1ryy	.	1ryy	.	.
4r	.	4r	.	4r	.	4r	.	.	.	.	.	.	.	.	.	.
2AA-X^/	.	2A-X/	.	(4.a-X^/	.	(4.cc^<\	.	.	.	.	.	.	.	.	.	.
.	.	.	.	8f/	.	8a-X/	.	.	.	.	.	.	.	.	.	.
=21	=21	=21	=21	=21	=21	=21	=21	=21	=21	=21	=21	=21	=21	=21	=21	=21
1BB-X/	.	1B-X/	.	8e-X/)	.	8g/)	.	1ryy	.	.	.	1ryy	.	1ryy	.	.
.	.	.	.	8r	.	8r	.	.	.	.	.	.	.	.	.	.
.	.	.	.	4.g/	.	(>4.b-X/	.	.	.	.	.	.	.	.	.	.
.	.	.	.	8g/L	.	8b-/L	.	.	.	.	.	.	.	.	.	.
.	.	.	.	8f/	.	8a-X/	.	.	.	.	.	.	.	.	.	.
.	.	.	.	8e-/J	.	8g/J	.	.	.	.	.	.	.	.	.	.
=22	=22	=22	=22	=22	=22	=22	=22	=22	=22	=22	=22	=22	=22	=22	=22	=22
[2BB-X/	.	[2B-X/	.	(4e-X/	.	2f/)	.	2ryy	.	.	.	2ryy	.	2ryy	.	.
.	.	.	.	8d/L	.	.	.	.	.	.	.	.	.	.	.	.
.	.	.	.	8c/J	.	.	.	.	.	.	.	.	.	.	.	.
!	!	!	!	!	!	!LO:TX:a:t=Seque Benedictus \nna same \ngłosy \nInstrumenta \ntacet	!	!	!	!	!	!	!	!	!	!
4BB-;/]	.	4B-;/]	.	4d;/)	.	4f;/	.	4r	.	.	.	4r	.	4r	.	.
==	==	==	==	==	==	==	==	==	==	==	==	==	==	==	==	==
*-	*-	*-	*-	*-	*-	*-	*-	*-	*-	*-	*-	*-	*-	*-	*-	*-
!!!system-decoration: [(s1,s2,s3)][(s4,s5,s6,s7)]
!!!RDF**kern: > = above
!!!RDF**kern: < = below
!!!RDF**kern: | = vertical stroke
!!!EED: Leszek Kubiak
!!!EEV: 2021-04-28
!!!ENC: Berenika Jozajtis
!!!END: 2021-04-12
